src/resources/assets/regex.svg

<svg xmlns="http://www.w3.org/2000/svg" width="16" height="16"><path d="M 10.667969 11.28125 C 10.445312 11.3125 10.226562 11.332031 10 11.332031 C 9.773438 11.332031 9.554688 11.3125 9.332031 11.28125 L 9.332031 8.941406 L 7.667969 10.59375 C 7.332031 10.332031 7 10 6.738281 9.667969 L 8.394531 8 L 6.054688 8 C 6.019531 7.78125 6 7.558594 6 7.332031 C 6 7.105469 6.019531 6.886719 6.054688 6.667969 L 8.394531 6.667969 L 6.738281 5 C 6.867188 4.832031 7 4.667969 7.171875 4.507812 C 7.332031 4.332031 7.5 4.199219 7.667969 4.074219 L 9.332031 5.726562 L 9.332031 3.386719 C 9.554688 3.351562 9.773438 3.332031 10 3.332031 C 10.226562 3.332031 10.445312 3.351562 10.667969 3.386719 L 10.667969 5.726562 L 12.332031 4.074219 C 12.667969 4.332031 13 4.667969 13.261719 5 L 11.605469 6.667969 L 13.945312 6.667969 C 13.980469 6.886719 14 7.105469 14 7.332031 C 14 7.558594 13.980469 7.78125 13.945312 8 L 11.605469 8 L 13.261719 9.667969 C 13.132812 9.832031 13 10 12.828125 10.160156 C 12.667969 10.332031 12.5 10.464844 12.332031 10.59375 L 10.667969 8.941406 L 10.667969 11.28125 M 3.332031 12.667969 C 3.332031 11.933594 3.933594 11.332031 4.667969 11.332031 C 5.398438 11.332031 6 11.933594 6 12.667969 C 6 13.398438 5.398438 14 4.667969 14 C 3.933594 14 3.332031 13.398438 3.332031 12.667969 Z M 3.332031 12.667969" fill="#ddd"/></svg>

<svg xmlns="http://www.w3.org/2000/svg" width="16" height="16"><path d="M10.668 11.281c-.223.031-.441.051-.668.051-.227 0-.445-.02-.668-.05v-2.34l-1.664 1.652a5.634 5.634 0 01-.93-.926L8.395 8h-2.34a4.154 4.154 0 010-1.332h2.34L6.738 5c.13-.168.262-.332.434-.492a3.34 3.34 0 01.496-.434l1.664 1.653v-2.34c.223-.035.441-.055.668-.055.227 0 .445.02.668.055v2.34l1.664-1.653c.336.258.668.594.93.926l-1.657 1.668h2.34a4.154 4.154 0 010 1.332h-2.34l1.657 1.668a4.121 4.121 0 01-.434.492c-.16.172-.328.305-.496.434L10.668 8.94v2.34m-7.336 1.387a1.34 1.34 0 011.336-1.336c.73 0 1.332.602 1.332 1.336C6 13.398 5.398 14 4.668 14a1.34 1.34 0 01-1.336-1.332zm0 0" fill="#ddd"/></svg>
